symbols/web/earbuds/materialsymbolsoutlined/earbuds_wght600_24px.svg

<svg xmlns="http://www.w3.org/2000/svg" height="24" width="24"><path d="M7.55 21.775q-2.4 0-4.062-1.688Q1.825 18.4 1.825 16V6q0-1.575 1.025-2.675 1.025-1.1 2.625-1.1 1.575 0 2.613 1.037Q9.125 4.3 9.125 5.875q0 1.55-1.063 2.6Q7 9.525 5.475 9.525h-1V16q0 1.3.888 2.212.887.913 2.187.913 1.325 0 2.225-.913.9-.912.9-2.212V8q0-2.4 1.688-4.088 1.687-1.687 4.087-1.687 2.4 0 4.063 1.687Q22.175 5.6 22.175 8v10.125q0 1.525-1.1 2.587-1.1 1.063-2.65 1.063-1.55 0-2.55-1.063-1-1.062-1-2.587 0-1.55 1.063-2.6 1.062-1.05 2.587-1.05h1V8q0-1.3-.887-2.213-.888-.912-2.188-.912-1.325 0-2.225.912-.9.913-.9 2.213v8q0 2.4-1.687 4.087-1.688 1.688-4.088 1.688Zm-3.075-14.9h1q.425 0 .713-.287.287-.288.287-.713t-.287-.713q-.288-.287-.713-.287t-.712.287q-.288.288-.288.713Zm14.05 12.25q.425 0 .713-.288.287-.287.287-.712v-1h-1q-.425 0-.713.288-.287.287-.287.712t.287.712q.288.288.713.288Zm0-1ZM5.475 5.875Z"/></svg>

<svg xmlns="http://www.w3.org/2000/svg" height="24" width="24"><path d="M7.55 21.775Q5.15 21.775 3.488 20.087Q1.825 18.4 1.825 16V6Q1.825 4.425 2.85 3.325Q3.875 2.225 5.475 2.225Q7.05 2.225 8.088 3.262Q9.125 4.3 9.125 5.875Q9.125 7.425 8.062 8.475Q7 9.525 5.475 9.525H4.475V16Q4.475 17.3 5.363 18.212Q6.25 19.125 7.55 19.125Q8.875 19.125 9.775 18.212Q10.675 17.3 10.675 16V8Q10.675 5.6 12.363 3.912Q14.05 2.225 16.45 2.225Q18.85 2.225 20.513 3.912Q22.175 5.6 22.175 8V18.125Q22.175 19.65 21.075 20.712Q19.975 21.775 18.425 21.775Q16.875 21.775 15.875 20.712Q14.875 19.65 14.875 18.125Q14.875 16.575 15.938 15.525Q17 14.475 18.525 14.475H19.525V8Q19.525 6.7 18.638 5.787Q17.75 4.875 16.45 4.875Q15.125 4.875 14.225 5.787Q13.325 6.7 13.325 8V16Q13.325 18.4 11.638 20.087Q9.95 21.775 7.55 21.775ZM4.475 6.875H5.475Q5.9 6.875 6.188 6.588Q6.475 6.3 6.475 5.875Q6.475 5.45 6.188 5.162Q5.9 4.875 5.475 4.875Q5.05 4.875 4.763 5.162Q4.475 5.45 4.475 5.875ZM18.525 19.125Q18.95 19.125 19.238 18.837Q19.525 18.55 19.525 18.125V17.125H18.525Q18.1 17.125 17.812 17.413Q17.525 17.7 17.525 18.125Q17.525 18.55 17.812 18.837Q18.1 19.125 18.525 19.125ZM18.525 18.125Q18.525 18.125 18.525 18.125Q18.525 18.125 18.525 18.125Q18.525 18.125 18.525 18.125Q18.525 18.125 18.525 18.125Q18.525 18.125 18.525 18.125Q18.525 18.125 18.525 18.125ZM5.475 5.875Q5.475 5.875 5.475 5.875Q5.475 5.875 5.475 5.875Q5.475 5.875 5.475 5.875Q5.475 5.875 5.475 5.875Q5.475 5.875 5.475 5.875Q5.475 5.875 5.475 5.875Z"/></svg>
